X: 1
T:Pram Pushing
R:Morris
O:England
M:4/4
K:C
Gc|\
e2e2 dcBA|A2G2 G2GA|B2B2 BAGB|d2c2 c2z2|\
g3a g2fe|f2c2 A2f2|edcB|A2BG|c6 ::
GB|\
d2d2 e2e2|dcBc d2ed|cBAB c2dc|BAGA B2GB|\
d2d2 e2e2|dcBc d2ed|cBAB cde^f|g6:|
